X:1
T:Let Me Fish Off Cape St. Mary's
M:4/4
L:1/8
K:D
 DF| A6 BA| FE D4 FA| d6 d2| e2 e2 c A- A2-| A2 z4| Bc| d2 d2 A2 BA|\
 F2 A2 D2 DF| A3 A B2 AF| E2 D4| DD| D2 D2 D2 D2| B,2 A,4||
